svgs/thin/phone-arrow-up-right.svg

<svg xmlns="http://www.w3.org/2000/svg" viewBox="0 0 512 512"><!--! Font Awesome Pro 6.3.0 by @fontawesome - https://fontawesome.com License - https://fontawesome.com/license (Commercial License) Copyright 2023 Fonticons, Inc. --><path d="M493.1 351.2L384.6 304.7c-3.967-1.717-8.148-2.543-12.29-2.543c-9.201 0-18.2 4.076-24.19 11.51l-44.05 53.81c-69.25-34-125.5-90.28-159.5-159.5l53.83-44.09c10.75-8.781 14.42-23.66 8.984-36.44L160.8 18.93C155.7 7.251 144.2 0 132 0C129.7 0 127.3 .263 124.1 .8079L24.22 24.06C9.969 27.31 0 39.84 0 54.5C0 306.8 205.2 512 457.5 512c14.67 0 27.2-9.969 30.47-24.22l23.25-100.8C514.6 372.4 507 357.2 493.1 351.2zM495.6 383.4l-23.26 100.8C470.8 491.2 464.7 496 457.5 496C214 496 16 297.9 16 54.49c0-7.154 4.844-13.26 11.82-14.85C140.3 13.69 130.4 16 132 16c6.117 0 11.68 3.672 14.12 9.234l46.51 108.5C195.3 139.1 193.5 147.3 188.2 151.6L124.6 203.7c66.63 135.7 164.7 174.4 183.8 183.8l52.16-63.73c2.012-2.496 8.896-8.123 17.72-4.303l108.4 46.49C493.6 368.9 497.3 376.2 495.6 383.4zM504 0h-144C355.6 0 352 3.578 352 8s3.578 8 8 8h124.7l-194.3 194.3c-3.125 3.125-3.125 8.188 0 11.31C291.9 223.2 293.1 224 296 224s4.094-.7813 5.656-2.344L496 27.31V152C496 156.4 499.6 160 504 160S512 156.4 512 152v-144C512 3.578 508.4 0 504 0z"/></svg>

<svg xmlns="http://www.w3.org/2000/svg" viewBox="0 0 512 512"><!-- Font Awesome Pro 6.0.0-alpha2 by @fontawesome - https://fontawesome.com License - https://fontawesome.com/license (Commercial License) --><path d="M493.094 351.248L384.609 304.748C380.643 303.031 376.461 302.205 372.318 302.205C363.117 302.205 354.117 306.281 348.125 313.717L304.078 367.529C234.828 333.529 178.531 277.248 144.547 208.027L198.375 163.934C209.125 155.152 212.797 140.277 207.359 127.494L160.828 18.932C155.709 7.25 144.248 0 132.006 0C129.676 0 127.318 0.262 124.969 0.807L24.219 24.057C9.969 27.307 0 39.838 0 54.494C0 306.779 205.234 512 457.484 512C472.156 512 484.688 502.031 487.953 487.781L511.203 387C514.578 372.404 507 357.248 493.094 351.248ZM495.613 383.402L472.357 484.207C470.768 491.15 464.65 496 457.484 496C214.049 496 16 297.941 16 54.494C16 47.34 20.844 41.238 27.816 39.646C140.291 13.691 130.365 16 132.006 16C138.123 16 143.684 19.672 146.123 25.234L192.637 133.756C195.277 139.963 193.475 147.277 188.236 151.557L124.594 203.689C191.221 339.387 289.258 378.074 308.42 387.486L360.584 323.756C362.596 321.26 369.48 315.633 378.307 319.453L486.756 365.939C493.551 368.871 497.275 376.211 495.613 383.402ZM504 0H360C355.578 0 352 3.578 352 8S355.578 16 360 16H484.688L290.344 210.344C287.219 213.469 287.219 218.531 290.344 221.656C291.906 223.219 293.953 224 296 224S300.094 223.219 301.656 221.656L496 27.312V152C496 156.422 499.578 160 504 160S512 156.422 512 152V8C512 3.578 508.422 0 504 0Z"/></svg>
